src/components/Icon/utils/svgsOptimized/sort-descending.svg

<svg width="24" height="24" viewBox="0 0 24 24"  xmlns="http://www.w3.org/2000/svg">
<path d="M16.53 4.48935L19.53 7.48935C19.82 7.77935 19.82 8.25936 19.53 8.54935C19.24 8.83936 18.76 8.83936 18.47 8.54935L16.75 6.82935V13.0194C16.75 13.4294 16.41 13.7694 16 13.7694C15.59 13.7694 15.25 13.4294 15.25 13.0194V6.82935L13.53 8.54935C13.24 8.83936 12.76 8.83936 12.47 8.54935C12.18 8.25936 12.18 7.77935 12.47 7.48935L15.47 4.48935C15.54 4.41935 15.62 4.36936 15.71 4.32935C15.89 4.25936 16.11 4.25936 16.29 4.32935C16.38 4.35935 16.46 4.41935 16.53 4.48935Z" />
<path d="M5 7.76935H10C10.41 7.76935 10.75 7.42936 10.75 7.01935C10.75 6.60935 10.41 6.26935 10 6.26935H5C4.59003 6.26935 4.25 6.60935 4.25 7.01935C4.25 7.42936 4.59003 7.76935 5 7.76935Z" />
<path d="M12 12.7594H5C4.59003 12.7594 4.25 12.4193 4.25 12.0094C4.25 11.5994 4.59003 11.2594 5 11.2594H12C12.41 11.2594 12.75 11.5994 12.75 12.0094C12.75 12.4193 12.41 12.7594 12 12.7594Z" />
<path d="M5 16.2394H16C16.41 16.2394 16.75 16.5793 16.75 16.9894C16.75 17.3994 16.41 17.7394 16 17.7394H5C4.59003 17.7394 4.25 17.3994 4.25 16.9894C4.25 16.5793 4.59003 16.2394 5 16.2394Z" />
</svg>

<?xml version="1.0" encoding="utf-8"?><svg width="24" height="24" xmlns="http://www.w3.org/2000/svg" viewBox="0 0 24 24"><path d="m16.53 4.49 3 3c.29.29.29.77 0 1.06-.29.29-.77.29-1.06 0l-1.72-1.72v6.19c0 .41-.34.75-.75.75s-.75-.34-.75-.75V6.83l-1.72 1.72c-.29.29-.77.29-1.06 0a.754.754 0 0 1 0-1.06l3-3c.07-.07.15-.12.24-.16.18-.07.4-.07.58 0 .09.03.17.09.24.16ZM5 7.77h5c.41 0 .75-.34.75-.75s-.34-.75-.75-.75H5c-.41 0-.75.34-.75.75s.34.75.75.75Zm7 4.99H5c-.41 0-.75-.34-.75-.75s.34-.75.75-.75h7c.41 0 .75.34.75.75s-.34.75-.75.75Zm-7 3.48h11c.41 0 .75.34.75.75s-.34.75-.75.75H5c-.41 0-.75-.34-.75-.75s.34-.75.75-.75Z"/></svg>
